src/img/to.svg

<svg fill="none" height="16" viewBox="0 0 16 16" width="16" xmlns="http://www.w3.org/2000/svg" xmlns:xlink="http://www.w3.org/1999/xlink"><mask id="a" height="17" maskUnits="userSpaceOnUse" width="14" x="1" y="0"><path d="m13.4485 5.66138-.0017-.01239-.0021-.01235c-.441-2.66314-2.7398-4.61923-5.44088-4.63662v-.000082l-.01288.000082c-2.7011.01739-4.99992 1.97348-5.44089 4.63662l-.00278.01679-.00221.01687c-.14084 1.07674.05028 2.17051.54755 3.13582.60894 1.26728 1.34282 2.47088 2.19076 3.59308.51774.7171 1.07701 1.4028 1.61918 2.0579.25039.3159.62213.5119 1.0242.5404l.04098.0029.04108-.0005c.43191-.0049.83886-.2039 1.10776-.542.54566-.6593 1.09793-1.3426 1.61853-2.0569.8495-1.1239 1.5845-2.3297 2.1942-3.59923.4885-.96972.6697-2.06508.5192-3.14039z" fill="#fff" stroke="#fff" stroke-width="2"/></mask><path d="m13.4485 5.66138-.0017-.01239-.0021-.01235c-.441-2.66314-2.7398-4.61923-5.44088-4.63662v-.000082l-.01288.000082c-2.7011.01739-4.99992 1.97348-5.44089 4.63662l-.00278.01679-.00221.01687c-.14084 1.07674.05028 2.17051.54755 3.13582.60894 1.26728 1.34282 2.47088 2.19076 3.59308.51774.7171 1.07701 1.4028 1.61918 2.0579.25039.3159.62213.5119 1.0242.5404l.04098.0029.04108-.0005c.43191-.0049.83886-.2039 1.10776-.542.54566-.6593 1.09793-1.3426 1.61853-2.0569.8495-1.1239 1.5845-2.3297 2.1942-3.59923.4885-.96972.6697-2.06508.5192-3.14039z" fill="#fff" stroke="#fff" stroke-width="2"/><g mask="url(#a)"><path d="m0 0h16v16h-16z" fill="#6f6f6f"/><circle cx="8" cy="6.5" fill="#fff" r="2"/></g></svg>

<svg width="16" height="16" viewBox="0 0 16 16" fill="none" xmlns="http://www.w3.org/2000/svg">
<path d="M13.4485 5.66138L13.4468 5.64899L13.4447 5.63664C13.0037 2.9735 10.7049 1.01741 8.00382 1.00002L8.00382 0.999938L7.99094 1.00002C5.28984 1.01741 2.99102 2.9735 2.55005 5.63664L2.54727 5.65343L2.54506 5.6703C2.40422 6.74704 2.59534 7.84081 3.09261 8.80612C3.70155 10.0734 4.43543 11.277 5.28337 12.3992C5.80111 13.1163 6.36038 13.802 6.90255 14.4571C7.15294 14.773 7.52468 14.969 7.92675 14.9975L7.96773 15.0004L8.00881 14.9999C8.44072 14.995 8.84767 14.796 9.11657 14.4579C9.66223 13.7986 10.2145 13.1153 10.7351 12.401C11.5846 11.2771 12.3196 10.0713 12.9293 8.80177C13.4178 7.83205 13.599 6.73669 13.4485 5.66138Z" fill="white" stroke="white" stroke-width="2"/>
<mask id="mask0" mask-type="alpha" maskUnits="userSpaceOnUse" x="1" y="0" width="14" height="17">
<path d="M13.4485 5.66138L13.4468 5.64899L13.4447 5.63664C13.0037 2.9735 10.7049 1.01741 8.00382 1.00002L8.00382 0.999938L7.99094 1.00002C5.28984 1.01741 2.99102 2.9735 2.55005 5.63664L2.54727 5.65343L2.54506 5.6703C2.40422 6.74704 2.59534 7.84081 3.09261 8.80612C3.70155 10.0734 4.43543 11.277 5.28337 12.3992C5.80111 13.1163 6.36038 13.802 6.90255 14.4571C7.15294 14.773 7.52468 14.969 7.92675 14.9975L7.96773 15.0004L8.00881 14.9999C8.44072 14.995 8.84767 14.796 9.11657 14.4579C9.66223 13.7986 10.2145 13.1153 10.7351 12.401C11.5846 11.2771 12.3196 10.0713 12.9293 8.80177C13.4178 7.83205 13.599 6.73669 13.4485 5.66138Z" fill="white" stroke="white" stroke-width="2"/>
</mask>
<g mask="url(#mask0)">
<rect width="16" height="16" fill="#6F6F6F"/>
<circle cx="8" cy="6.5" r="2" fill="white"/>
</g>
</svg>
